client/src/assets/images/icon-photo.svg

<svg viewBox="0 0 56.22 40.599" xmlns="http://www.w3.org/2000/svg"><g fill="#808080"><path d="m55.46 40.6h-54.7a.76.76 0 0 1 -.76-.76v-31.995a.76.76 0 0 1 .76-.76h54.7a.76.76 0 0 1 .76.76v31.994a.76.76 0 0 1 -.76.761zm-53.94-1.521h53.18v-30.479h-53.18z"/><path d="m40.2 8.34-2.562-6.82h-19.058l-2.556 6.82-1.424-.533 2.743-7.314a.759.759 0 0 1 .711-.493h20.111a.759.759 0 0 1 .711.493l2.743 7.313z"/><path d="m28.109 35.256a11.115 11.115 0 1 1 11.115-11.115 11.127 11.127 0 0 1 -11.115 11.115zm0-20.71a9.595 9.595 0 1 0 9.6 9.595 9.606 9.606 0 0 0 -9.6-9.595z"/></g></svg>

<svg xmlns="http://www.w3.org/2000/svg" viewBox="0 0 56.22 40.599"><defs><style>.a{fill:#808080;}</style></defs><title>icon-photo</title><path class="a" d="M55.46,40.6H.76a.76.76,0,0,1-.76-.76V7.845a.76.76,0,0,1,.76-.76h54.7a.76.76,0,0,1,.76.76V39.839A.76.76,0,0,1,55.46,40.6ZM1.52,39.079H54.7V8.6H1.52Z"/><path class="a" d="M40.2,8.34,37.638,1.52H18.58L16.024,8.34,14.6,7.807,17.343.493A.759.759,0,0,1,18.054,0H38.165a.759.759,0,0,1,.711.493l2.743,7.313Z"/><path class="a" d="M28.109,35.256A11.115,11.115,0,1,1,39.224,24.141,11.127,11.127,0,0,1,28.109,35.256Zm0-20.71a9.595,9.595,0,1,0,9.6,9.595A9.606,9.606,0,0,0,28.109,14.546Z"/></svg>
